src/assets/vectors/fa-facebook.svg

<svg width="10" height="16" viewBox="0 0 10 16" fill="none" xmlns="http://www.w3.org/2000/svg">
<path d="M8.72314 9L9.16752 6.10437H6.38908V4.22531C6.38908 3.43313 6.77721 2.66094 8.02158 2.66094H9.28471V0.195625C9.28471 0.195625 8.13846 0 7.04252 0C4.75439 0 3.25877 1.38688 3.25877 3.8975V6.10437H0.715332V9H3.25877V16H6.38908V9H8.72314Z" fill="#F0F1F3"/>
</svg>

<svg xmlns="http://www.w3.org/2000/svg" width="10" height="16" viewBox="0 0 10 16" fill="none"><path d="M8.723 9l.444-2.896H6.39v-1.88c0-.792.388-1.564 1.633-1.564h1.263V.196S8.138 0 7.043 0C4.754 0 3.26 1.387 3.26 3.898v2.207H.715V9H3.26v7h3.13V9h2.334z" fill="#f0f1f3"/></svg>
